X:1
T:O admirabile commercium
T:Ignatio Donati
T:Source : Primo libro di Motetti a voce sol---Venetia---A.Vincenti--- 1634. Edttor : André Vierendeels (11/12/16).
T:Notes : Original clefs : C1, F4 Editorial accidentals above the staff Figures in BC are notated in original print "Canto o Tenore"
T:O admirabile commercium
T:©
T:©
T:©
T:©
T:©
T:©
T:©
C:Ignatio Donati
Z:©
%%score 1 2
L:1/8
Q:1/4=104
M:4/4
K:F
V:1 treble nm="Soprano" snm="S"
V:2 bass nm="MusicXML Part"
V:1
 G8- | G8- | G2 GG G2 A2 | B3 G B4- | B2 D/E/F/G/ A/B/c d2- | %5
w: O|_|* ad- mi- ra- bi-|le com- mer-||
 d/f/_e/d/ e/d/e/c/ d/B/c/d/ e/d/c/B/ | A3 B/c/ F2 F/G/A/B/ | c/A/B/c/ d/c/d/B/ c3 B | B4 z4 | %9
w: ||* * * * * * * * * ci-|um!|
 z2 G2 G2 A/G/A/B/ | c6 B2 | A4 z2 A2 | A2 B/A/B/c/ d3 A | B3 A c4- | %14
w: Cre- a- tor _ _ _|ge- ne-|ris, cre-|a- tor _ _ _ ge- ne-|ris hu- ma-|
 c2 B/A/G/F/ G/A/B/G/ c/B/A/G/ | A/F/G/A/ B/c/d/F/ G4 | F8 | z8 | z2 cc c2 G2 | %19
w: ||ni,||a- ni- ma- tum|
 B4- B/A/B/c/ G/F/G/A/ |"^b" B/D/E/F/ G/A/B/G/ A4- | A2 GF E4 | D4 z4 | z2 dd d2 B2 | %24
w: cor- * * * * * * * *||* pus _ su-|mens,|a- ni- ma- tum|
 _e4- e/d/e/f/ c/B/c/d/ | _e/G/A/B/ c/d/e/c/ d4- | d4 Bc cB | c4 c4 | z2 A2 A4- | A2 A2 B4- | %30
w: cor- * * * * * * * *||* * * pus _|su- mens|de Vir-|* gi- ne|
 B/A/G/A/ B/G/A/B/ c4- | c/B/A/B/ c/A/B/c/ d4- | d4 _e3 f/g/ | =B4 c4- | c2- c/F/G/A/ =BccB | %35
w: _ _ _ _ _ _ _ _ na-|* * * * * * * * sci|_ di- * *|gna- *||
 c4 z4 | z2 E2 E4- | E2 E2 F4- | F/>D/E/4F/4G/4A/4 B/A/G/F/ G4- | G/>E/F/4G/4A/4B/4 c/B/A/G/ A4- | %40
w: tus,|de Vir-|* gi- ne|_ _ _ _ _ _ _ _ _ _ na-|* * * * * * * * * * sci|
 A2 d/c/B/A/ B>A B/A/B/G/ | A/B/c/B/ A/G/c/4B/4A/4G/4 A3 G | G8 | z8 | z2 cc c2 B2 | AG AB FE FG | %46
w: _ di- * * * gna- * * * * *|* * * * * * * * * * * tus|est,||et pro- ce- dens|ho- * mo _ si- * ne _|
 D/C/D/E/ F/E/D/C/ D3 C | C4 z4 | z2 ff f2 e2 |"^b" dc de BA Bc | G2- G/F/E/F/ GTFFE | F4 z2 A2 | %52
w: se- * * * * * * * * mi-|ne,|et pro- ce- dens|ho- * mo _ si- * ne _|se- * * * * * * * mi-|ne, lar-|
 A2 AA A2 B2 | c4- cGGF | A2- A/G/F/E/ F>E F/E/F/D/ | E8 | D4 z4 | z2 B2 B2 BB | B2 c2 d4- | %59
w: gi- tus est no- bis|su- * am de- i-|ta- * * * * * * * * * *||tem,|lar- gi- tus est|no- bis su-|
 d2 A2 c4 | c/^F/G/A/ B/A/B/G/ A3 B/c/ | ^FG/A/ D2- DE/F/ G/A/B/c/ | %62
w: * am de-|||
 d2- d/c/B/A/ B/G/A/B/ c/B/A/G/ |"^#" A/F/G/A/ B/c/d/e/ ^f2 g2- | gG A/B/c/B/ A4 | G8 |] %66
w: ||* i- ta- * * * *|tem.|
V:2
"^BC" G,,8 |"^b" C,4 =B,,4 |"^b" C,8 | G,,8 | B,,6 D,2- | D,8 | F,8- | F,4 F,4 | B,,4 B,,4 | %9
 _E,6 D,2 | C,4 C,4 | F,8 | D,8- | D,4 A,,4 | C,8- | C,8 | F,,4 F,,4 | B,,4 D,4 | C,8 | %19
 G,,4 _E,4- | E,4 D,4 |"^#" G,,4 A,,4 | D,2 C,2 B,,2 A,,2 | G,,4 G,4 |"^b" _E,4 C,4- | C,4 G,4 | %26
 G,8 | F,8 | F,8 | D,8 | _E,4 =E,4 | F,4 F,4 |"^3 4" G,8 |"^-natural""^34" G,8 | G,8 | C,4 =B,,4 | %36
 C,8 |"^6" A,,4 A,,4 | B,,4 =B,,4 | C,4 ^C,4 |"^#" D,8- | D,8 | G,,4 G,4 | G,2 F,2 E,2 D,2 | C,8 | %45
 F,,8 |"^-natural" G,,8 | C,2 B,,2 A,,2 G,,2 | F,,8 | B,,8 | C,8 | F,,4 F,4 | D,8 | C,4 B,,4 | %54
"^#" A,,8- | A,,8 | D,2 C,2 B,,2 A,,2 | G,,4 G,4 | G,8 | F,4 _E,4 |"^#" D,8 |"^#" D,8 |"^#" D,8- | %63
 D,8 |"^#""^#""^3 4""^4 3" D,4 D,4 | G,,8 |] %66

